X: 1
T: Seneca Square Dance
C: trad.
O: arr. Marcy Marxer
R: reel
S: Fiddle Hell Online 2021-11-R07 Marcy Marxer flatpicking workshop
N: The handout also has guitar tab under the staff notation.
Z: 2021 John Chambers <jc:trillian.mit.edu>
M: 4/4
L: 1/8
K: G
GA "^A"|: "G"B4 BA Bc | d2 B4 G2 | "C"B4 de dB | A2 G4 A2 | "G"B4 BA Bc | d2 B4 G2 |
"D"AB AG ED EF |[1 "G"G4 G2A2 :|[2 "G"G2 GA Bc d2 "^B"|: "G"g2 ef ga ge | d2 B2 d2 | "Em"gf ef g2 a2 |
"C"b2 e2 e2 f2 | "G"ga ba g2 e2 | d2 B4 G2 | "D"AB AG ED EF |[1 "G"G2 GA Bc d2 :|[2 "G"G6 |]
